assets/images/icons/src/genderless.svg

<?xml version="1.0" encoding="utf-8"?>
<!-- Generated by IcoMoon.io -->
<!DOCTYPE svg PUBLIC "-//W3C//DTD SVG 1.1//EN" "http://www.w3.org/Graphics/SVG/1.1/DTD/svg11.dtd">
<svg version="1.1" xmlns="http://www.w3.org/2000/svg" xmlns:xlink="http://www.w3.org/1999/xlink" width="9" height="14" viewBox="0 0 9 14">
<path fill="#444444" d="M8 7.5q0-1.445-1.027-2.473t-2.473-1.027-2.473 1.027-1.027 2.473 1.027 2.473 2.473 1.027 2.473-1.027 1.027-2.473zM9 7.5q0 0.914-0.355 1.746t-0.961 1.438-1.438 0.961-1.746 0.355-1.746-0.355-1.438-0.961-0.961-1.438-0.355-1.746 0.355-1.746 0.961-1.438 1.438-0.961 1.746-0.355 1.746 0.355 1.438 0.961 0.961 1.438 0.355 1.746z"></path>
</svg>

<svg xmlns="http://www.w3.org/2000/svg" width="9" height="14" viewBox="0 0 9 14"><path fill="#444" d="M8 7.5q0-1.445-1.027-2.473T4.5 4 2.027 5.027 1 7.5t1.027 2.473T4.5 11t2.473-1.027T8 7.5zm1 0q0 .914-.355 1.746t-.961 1.438-1.438.961T4.5 12t-1.746-.355-1.438-.961-.961-1.438T0 7.5t.355-1.746.961-1.438 1.438-.961T4.5 3t1.746.355 1.438.961.961 1.438T9 7.5z"/></svg>
